X: 1633
T: Youghal Harbour
M:2/4
L:1/16
B:O'Neills 1633
N:"collected by F. O'Neill"
N: Fixed line wrapping [jc]
Z:Transcribed by Nick Terhorst, nickte@microsoft.com
K:G
BA|GFEF GABd|egfa gage|dcBA G2Bd|cBAG EcBA|
|GFEF GABd|egfa gage|dcBA B>AG/2F/2E/2F/2|G2G2G2:|
|:dc|Bdef g2fg|agfg edge|dcBA G2Bd|cBAG EcBA|
|GFEF GABd|egfa gage|dcBA B>AG/2F/2E/2F/2|G2G2G2:|


